X:73
M:3/4
L:1/8
K:D
e3 d zA|d3 c Bz|A3 G Fz|G3 A Bz|=c3B zA|d3 e fz|A3 D Ez|D3 zA2|
d3 e f2|e3A g2|f3 d e2|d3 z||A2|d3e f2|A4 F2|A4 f2|a3f zA|d3e f2|
e3A g2|f3d e2|d3z||
M:2/4
dcBA|d2 FF|G2 Af|a2 fd|f>edB|A2 DG|F2 E2|D3 z/A/||
M:3/4

